icons/badge-checkmark-two-color.svg

<?xml version="1.0" encoding="UTF-8"?><svg xmlns="http://www.w3.org/2000/svg" viewBox="0 0 50 50"><g id="uuid-53adc087-5023-443a-ae8d-1c0f409ea177"><g><path d="M26.39,3.38c-7.76,0-15.21,1.73-22.15,5.13,.42,4.84,1.21,9.68,2.35,14.41,1.54,6.4,2.47,10.26,4.98,14.3,3.19,5.16,8.32,9.36,14.82,12.15,6.41-2.82,11.49-7.02,14.71-12.16,2.6-4.15,3.59-8.19,5.09-14.3,1.16-4.73,1.95-9.57,2.35-14.4-6.94-3.41-14.39-5.13-22.15-5.13Zm13.91,7.31l-15.26,26.09c-.44,.75-1.22,1.24-2.09,1.31-.07,0-.14,0-.21,0-.8,0-1.55-.36-2.06-.98l-7.8-9.55c-.17-.21-.14-.53,.07-.7l3.34-2.73c.1-.08,.23-.12,.37-.11,.13,.01,.25,.08,.34,.18l5.38,6.59,13.33-22.79c.07-.12,.18-.2,.31-.23,.13-.03,.26-.01,.38,.05l3.73,2.18c.11,.07,.2,.18,.23,.3,.03,.13,.01,.26-.05,.38Z" fill="#ffcd00"/><g><path d="M40.11,10.01l-3.73-2.18c-.11-.07-.25-.09-.38-.05-.13,.03-.24,.12-.31,.23l-13.33,22.79-5.38-6.59c-.08-.1-.21-.17-.34-.18-.13-.01-.26,.03-.37,.11l-3.34,2.73c-.21,.17-.25,.49-.07,.7l7.8,9.55c.51,.62,1.26,.98,2.06,.98,.07,0,.14,0,.21,0,.87-.07,1.65-.56,2.09-1.31l15.26-26.09c.07-.11,.09-.25,.05-.38-.03-.13-.12-.24-.23-.3Zm-15.94,26.27c-.27,.47-.76,.77-1.3,.82h-.13c-.5,0-.97-.22-1.28-.6l-7.49-9.16,2.57-2.1,5.52,6.76c.1,.13,.25,.2,.43,.18,.16-.01,.31-.1,.39-.25l13.44-22.98,1.43,.84,1.43,.84-15,25.66Z"/><path d="M47.54,6.02C40.37,2.44,32.67,.63,24.64,.63S8.9,2.44,1.74,6.02c-.18,.09-.29,.29-.28,.49,.41,5,1.22,10.01,2.4,14.9,1.51,6.27,2.51,10.41,5.1,14.59,3.34,5.39,8.69,9.75,15.48,12.62,.06,.03,.13,.04,.19,.04s.14-.01,.2-.04c6.69-2.9,12-7.27,15.36-12.63,2.69-4.29,3.69-8.39,5.21-14.59,1.2-4.89,2.01-9.9,2.4-14.89,.02-.2-.09-.4-.28-.49Zm-3.1,15.15c-1.5,6.11-2.49,10.14-5.09,14.3-3.22,5.14-8.31,9.35-14.71,12.16-6.5-2.79-11.62-6.99-14.82-12.15-2.5-4.04-3.44-7.9-4.98-14.3-1.14-4.73-1.93-9.58-2.35-14.41C9.43,3.36,16.88,1.63,24.64,1.63s15.21,1.73,22.15,5.13c-.4,4.83-1.19,9.67-2.35,14.4Z"/></g></g></g><g id="uuid-74108993-0be8-4e9b-8903-3ecaf517ce62"><text transform="translate(-.1 54.79)" font-family="Roboto-Regular, Roboto" font-size="6"><tspan x="0" y="0">badge-checkmark</tspan></text></g></svg>

<svg xmlns="http://www.w3.org/2000/svg" viewBox="0 0 50 50"><g id="a70660fb-dc76-43c7-8353-8a2a96f62f50" data-name="ICONS"><path d="M26.39,3.38A49.93,49.93,0,0,0,4.24,8.51,97.83,97.83,0,0,0,6.59,22.93c1.54,6.39,2.47,10.25,5,14.29A31.8,31.8,0,0,0,26.38,49.37,32.42,32.42,0,0,0,41.1,37.21c2.6-4.15,3.59-8.19,5.09-14.3a92.76,92.76,0,0,0,2.35-14.4A49.93,49.93,0,0,0,26.39,3.38Zm13.9,7.31L25,36.78A2.67,2.67,0,0,1,23,38.09h-.21a2.66,2.66,0,0,1-2.06-1l-7.8-9.55a.49.49,0,0,1,.07-.7l3.34-2.74a.5.5,0,0,1,.37-.1.48.48,0,0,1,.34.18l5.38,6.58L35.7,8A.48.48,0,0,1,36,7.78a.46.46,0,0,1,.38,0L40.11,10a.48.48,0,0,1,.24.3A.5.5,0,0,1,40.29,10.69Z" fill="#fdd600"/><path d="M40.11,10,36.39,7.83a.46.46,0,0,0-.38,0A.48.48,0,0,0,35.7,8L22.38,30.79,17,24.21a.48.48,0,0,0-.34-.18.5.5,0,0,0-.37.1L13,26.87a.49.49,0,0,0-.07.7l7.8,9.55a2.66,2.66,0,0,0,2.06,1H23A2.67,2.67,0,0,0,25,36.78L40.29,10.69a.5.5,0,0,0,.06-.38A.48.48,0,0,0,40.11,10ZM24.17,36.28a1.64,1.64,0,0,1-1.3.81h-.13a1.63,1.63,0,0,1-1.28-.61L14,27.32l2.57-2.09L22.06,32a.5.5,0,0,0,.43.19.52.52,0,0,0,.39-.25l13.44-23,1.43.84,1.43.84Z" fill="#231f20"/><path d="M47.54,6A50.8,50.8,0,0,0,24.64.63,50.77,50.77,0,0,0,1.74,6a.51.51,0,0,0-.28.49,99,99,0,0,0,2.41,14.9C5.38,27.68,6.38,31.82,9,36c3.33,5.39,8.68,9.75,15.47,12.63a.65.65,0,0,0,.2,0,.49.49,0,0,0,.2-.05A33.47,33.47,0,0,0,40.2,36c2.68-4.29,3.69-8.39,5.21-14.59a93.06,93.06,0,0,0,2.4-14.9A.49.49,0,0,0,47.54,6Zm-3.1,15.14c-1.5,6.11-2.49,10.15-5.09,14.3A32.42,32.42,0,0,1,24.63,47.62,31.8,31.8,0,0,1,9.82,35.47c-2.51-4-3.44-7.9-5-14.29A97.83,97.83,0,0,1,2.49,6.76a50.38,50.38,0,0,1,44.3,0A92.76,92.76,0,0,1,44.44,21.16Z" fill="#231f20"/></g><g id="bfe905e5-8bab-4f88-a430-1475a2d510ea" data-name="LABELS"><text transform="translate(-0.1 54.79)" font-size="6" fill="#231f20" font-family="Roboto-Regular, Roboto">badge-checkmark</text></g></svg>
